svg/color/add.svg

<?xml version="1.0" encoding="UTF-8" ?>
<!DOCTYPE svg PUBLIC "-//W3C//DTD SVG 1.1//EN" "http://www.w3.org/Graphics/SVG/1.1/DTD/svg11.dtd">
<svg width="250pt" height="231pt" viewBox="0 0 250 231" version="1.1" xmlns="http://www.w3.org/2000/svg">
<g id="#ffffffff">
<path fill="#ffffff" opacity="1.00" d=" M 0.00 0.00 L 57.89 0.00 C 40.41 1.12 23.53 9.90 12.90 23.87 C 5.18 33.70 0.72 45.96 0.00 58.43 L 0.00 0.00 Z" />
<path fill="#ffffff" opacity="1.00" d=" M 190.67 0.00 L 250.00 0.00 L 250.00 231.00 L 191.97 231.00 C 205.39 229.94 218.51 224.64 228.57 215.64 C 241.59 204.29 249.44 187.25 249.49 169.96 C 249.47 133.63 249.48 97.30 249.49 60.97 C 249.39 45.88 243.48 30.90 233.17 19.86 C 222.36 7.98 206.71 0.72 190.67 0.00 Z" />
<path fill="#ffffff" opacity="1.00" d=" M 0.00 172.40 C 0.68 185.39 5.52 198.15 13.76 208.23 C 24.56 221.69 41.24 230.15 58.47 231.00 L 0.00 231.00 L 0.00 172.40 Z" />
</g>
<g id="#000000ff">
<path fill="#000000" opacity="1.00" d=" M 57.89 0.00 L 190.67 0.00 C 206.71 0.72 222.36 7.98 233.17 19.86 C 243.48 30.90 249.39 45.88 249.49 60.97 C 249.48 97.30 249.47 133.63 249.49 169.96 C 249.44 187.25 241.59 204.29 228.57 215.64 C 218.51 224.64 205.39 229.94 191.97 231.00 L 58.47 231.00 C 41.24 230.15 24.56 221.69 13.76 208.23 C 5.52 198.15 0.68 185.39 0.00 172.40 L 0.00 58.43 C 0.72 45.96 5.18 33.70 12.90 23.87 C 23.53 9.90 40.41 1.12 57.89 0.00 M 109.79 63.69 C 114.88 62.87 119.83 61.27 124.96 60.73 C 129.98 61.44 134.87 62.86 139.88 63.65 C 134.94 57.76 130.02 51.84 124.95 46.06 C 119.37 51.45 114.59 57.62 109.79 63.69 M 82.72 82.17 C 83.88 84.12 85.12 86.01 86.55 87.77 C 95.55 77.39 104.34 66.83 113.11 56.26 C 102.90 64.80 92.92 73.62 82.72 82.17 M 136.94 56.62 C 145.16 67.38 154.24 77.46 162.94 87.83 C 164.35 86.05 165.53 84.10 166.82 82.23 C 156.78 73.79 146.88 65.18 136.94 56.62 M 108.35 65.89 C 113.17 76.89 119.24 87.32 124.44 98.15 C 126.71 95.62 127.84 92.35 129.45 89.40 C 133.19 81.53 137.71 74.03 141.09 65.99 C 135.70 65.10 130.42 63.61 125.03 62.77 C 119.39 63.25 113.97 65.20 108.35 65.89 M 101.35 73.37 C 96.95 78.57 92.53 83.76 88.18 89.01 C 99.72 92.26 111.15 95.91 122.69 99.15 C 117.41 88.65 111.93 78.25 106.78 67.68 C 104.55 69.13 103.03 71.36 101.35 73.37 M 141.60 70.69 C 136.67 80.15 131.77 89.62 126.70 99.00 C 138.30 96.11 149.63 92.23 161.14 89.01 C 155.51 81.90 149.53 75.06 143.65 68.16 C 142.45 68.41 142.22 69.82 141.60 70.69 M 81.33 84.21 C 77.11 93.71 72.15 102.87 67.98 112.39 C 73.76 105.59 78.73 98.15 84.11 91.03 C 86.21 88.50 82.58 86.21 81.33 84.21 M 164.45 89.28 C 164.44 90.38 165.54 91.14 166.04 92.05 C 171.46 99.00 176.31 106.40 181.99 113.14 C 177.39 103.46 172.60 93.88 168.06 84.17 C 166.80 85.83 165.38 87.41 164.45 89.28 M 89.12 91.32 C 96.06 100.88 103.15 110.34 110.05 119.94 C 110.76 120.78 111.31 122.10 112.65 121.78 C 115.94 114.86 119.85 108.20 122.57 101.03 C 111.32 98.14 100.32 94.39 89.12 91.32 M 126.95 101.07 C 129.62 108.61 133.99 115.42 137.19 122.74 C 144.87 112.32 152.80 102.07 160.05 91.36 C 149.00 94.53 138.05 98.08 126.95 101.07 M 61.40 125.10 C 69.36 134.79 77.37 144.45 85.43 154.06 C 85.45 133.62 85.68 113.17 85.31 92.74 C 77.32 103.51 69.34 114.29 61.40 125.10 M 87.52 153.30 C 95.08 144.20 102.62 135.09 110.11 125.94 C 111.25 125.09 110.70 123.91 109.97 123.02 C 102.47 112.87 95.01 102.69 87.56 92.51 C 87.31 112.77 87.40 133.04 87.52 153.30 M 138.29 124.84 C 146.41 134.12 153.80 144.03 162.09 153.16 C 162.21 137.45 162.13 121.74 162.15 106.03 C 162.09 101.59 162.47 97.13 161.68 92.73 C 154.00 103.52 145.94 114.03 138.29 124.84 M 164.22 92.77 C 164.08 113.17 164.10 133.58 164.20 153.98 C 171.85 144.66 179.58 135.41 187.27 126.13 C 188.36 124.97 186.85 123.61 186.29 122.61 C 178.89 112.69 171.56 102.73 164.22 92.77 M 61.62 128.58 C 61.47 147.23 61.51 165.88 61.59 184.53 C 69.57 175.47 76.88 165.84 84.84 156.77 C 77.34 147.19 69.45 137.89 61.62 128.58 M 164.60 156.63 C 172.40 165.78 179.80 175.28 187.71 184.32 C 187.88 165.75 187.88 147.17 187.71 128.60 C 180.03 137.96 172.20 147.20 164.60 156.63 Z" />
</g>
<g id="#30b6f3ff">
<path fill="#30b6f3" opacity="1.00" d=" M 109.79 63.69 C 114.59 57.62 119.37 51.45 124.95 46.06 C 130.02 51.84 134.94 57.76 139.88 63.65 C 134.87 62.86 129.98 61.44 124.96 60.73 C 119.83 61.27 114.88 62.87 109.79 63.69 Z" />
<path fill="#30b6f3" opacity="1.00" d=" M 82.72 82.17 C 92.92 73.62 102.90 64.80 113.11 56.26 C 104.34 66.83 95.55 77.39 86.55 87.77 C 85.12 86.01 83.88 84.12 82.72 82.17 Z" />
<path fill="#30b6f3" opacity="1.00" d=" M 136.94 56.62 C 146.88 65.18 156.78 73.79 166.82 82.23 C 165.53 84.10 164.35 86.05 162.94 87.83 C 154.24 77.46 145.16 67.38 136.94 56.62 Z" />
<path fill="#30b6f3" opacity="1.00" d=" M 108.35 65.89 C 113.97 65.20 119.39 63.25 125.03 62.77 C 130.42 63.61 135.70 65.10 141.09 65.99 C 137.71 74.03 133.19 81.53 129.45 89.40 C 127.84 92.35 126.71 95.62 124.44 98.15 C 119.24 87.32 113.17 76.89 108.35 65.89 Z" />
<path fill="#30b6f3" opacity="1.00" d=" M 101.35 73.37 C 103.03 71.36 104.55 69.13 106.78 67.68 C 111.93 78.25 117.41 88.65 122.69 99.15 C 111.15 95.91 99.72 92.26 88.18 89.01 C 92.53 83.76 96.95 78.57 101.35 73.37 Z" />
<path fill="#30b6f3" opacity="1.00" d=" M 141.60 70.69 C 142.22 69.82 142.45 68.41 143.65 68.16 C 149.53 75.06 155.51 81.90 161.14 89.01 C 149.63 92.23 138.30 96.11 126.70 99.00 C 131.77 89.62 136.67 80.15 141.60 70.69 Z" />
<path fill="#30b6f3" opacity="1.00" d=" M 81.33 84.21 C 82.58 86.21 86.21 88.50 84.11 91.03 C 78.73 98.15 73.76 105.59 67.98 112.39 C 72.15 102.87 77.11 93.71 81.33 84.21 Z" />
<path fill="#30b6f3" opacity="1.00" d=" M 164.45 89.28 C 165.38 87.41 166.80 85.83 168.06 84.17 C 172.60 93.88 177.39 103.46 181.99 113.14 C 176.31 106.40 171.46 99.00 166.04 92.05 C 165.54 91.14 164.44 90.38 164.45 89.28 Z" />
<path fill="#30b6f3" opacity="1.00" d=" M 89.12 91.32 C 100.32 94.39 111.32 98.14 122.57 101.03 C 119.85 108.20 115.94 114.86 112.65 121.78 C 111.31 122.10 110.76 120.78 110.05 119.94 C 103.15 110.34 96.06 100.88 89.12 91.32 Z" />
<path fill="#30b6f3" opacity="1.00" d=" M 126.95 101.07 C 138.05 98.08 149.00 94.53 160.05 91.36 C 152.80 102.07 144.87 112.32 137.19 122.74 C 133.99 115.42 129.62 108.61 126.95 101.07 Z" />
<path fill="#30b6f3" opacity="1.00" d=" M 61.40 125.10 C 69.34 114.29 77.32 103.51 85.31 92.74 C 85.68 113.17 85.45 133.62 85.43 154.06 C 77.37 144.45 69.36 134.79 61.40 125.10 Z" />
<path fill="#30b6f3" opacity="1.00" d=" M 87.52 153.30 C 87.40 133.04 87.31 112.77 87.56 92.51 C 95.01 102.69 102.47 112.87 109.97 123.02 C 110.70 123.91 111.25 125.09 110.11 125.94 C 102.62 135.09 95.08 144.20 87.52 153.30 Z" />
<path fill="#30b6f3" opacity="1.00" d=" M 138.29 124.84 C 145.94 114.03 154.00 103.52 161.68 92.73 C 162.47 97.13 162.09 101.59 162.15 106.03 C 162.13 121.74 162.21 137.45 162.09 153.16 C 153.80 144.03 146.41 134.12 138.29 124.84 Z" />
<path fill="#30b6f3" opacity="1.00" d=" M 164.22 92.77 C 171.56 102.73 178.89 112.69 186.29 122.61 C 186.85 123.61 188.36 124.97 187.27 126.13 C 179.58 135.41 171.85 144.66 164.20 153.98 C 164.10 133.58 164.08 113.17 164.22 92.77 Z" />
<path fill="#30b6f3" opacity="1.00" d=" M 61.62 128.58 C 69.45 137.89 77.34 147.19 84.84 156.77 C 76.88 165.84 69.57 175.47 61.59 184.53 C 61.51 165.88 61.47 147.23 61.62 128.58 Z" />
<path fill="#30b6f3" opacity="1.00" d=" M 164.60 156.63 C 172.20 147.20 180.03 137.96 187.71 128.60 C 187.88 147.17 187.88 165.75 187.71 184.32 C 179.80 175.28 172.40 165.78 164.60 156.63 Z" />
</g>
</svg>

<?xml version="1.0" encoding="utf-8"?>
<!-- Generator: Adobe Illustrator 26.0.3, SVG Export Plug-In . SVG Version: 6.00 Build 0)  -->
<svg version="1.1" id="Layer_1" xmlns="http://www.w3.org/2000/svg" xmlns:xlink="http://www.w3.org/1999/xlink" x="0px" y="0px"
	 viewBox="0 0 250 231" style="enable-background:new 0 0 250 231;" xml:space="preserve">
<style type="text/css">
	.st0{fill:#30B6F3;}
</style>
<g id="_x23_000000ff">
	<path d="M57.9,0h132.8c16,0.7,31.7,8,42.5,19.9c10.3,11,16.2,26,16.3,41.1c0,36.3,0,72.7,0,109c-0.1,17.3-7.9,34.3-20.9,45.7
		c-10.1,9-23.2,14.3-36.6,15.4H58.5c-17.2-0.9-33.9-9.3-44.7-22.8C5.5,198.1,0.7,185.4,0,172.4v-114C0.7,46,5.2,33.7,12.9,23.9
		C23.5,9.9,40.4,1.1,57.9,0 M109.8,63.7c5.1-0.8,10-2.4,15.2-3c5,0.7,9.9,2.1,14.9,2.9c-4.9-5.9-9.9-11.8-14.9-17.6
		C119.4,51.5,114.6,57.6,109.8,63.7 M82.7,82.2c1.2,2,2.4,3.8,3.8,5.6c9-10.4,17.8-20.9,26.6-31.5C102.9,64.8,92.9,73.6,82.7,82.2
		 M136.9,56.6c8.2,10.8,17.3,20.8,26,31.2c1.4-1.8,2.6-3.7,3.9-5.6C156.8,73.8,146.9,65.2,136.9,56.6 M108.3,65.9
		c4.8,11,10.9,21.4,16.1,32.3c2.3-2.5,3.4-5.8,5-8.8c3.7-7.9,8.3-15.4,11.6-23.4c-5.4-0.9-10.7-2.4-16.1-3.2
		C119.4,63.2,114,65.2,108.3,65.9 M101.3,73.4c-4.4,5.2-8.8,10.4-13.2,15.6c11.5,3.2,23,6.9,34.5,10.1
		c-5.3-10.5-10.8-20.9-15.9-31.5C104.6,69.1,103,71.4,101.3,73.4 M141.6,70.7c-4.9,9.5-9.8,18.9-14.9,28.3
		c11.6-2.9,22.9-6.8,34.4-10c-5.6-7.1-11.6-14-17.5-20.8C142.4,68.4,142.2,69.8,141.6,70.7 M81.3,84.2c-4.2,9.5-9.2,18.7-13.3,28.2
		c5.8-6.8,10.8-14.2,16.1-21.4C86.2,88.5,82.6,86.2,81.3,84.2 M164.4,89.3c0,1.1,1.1,1.9,1.6,2.8c5.4,6.9,10.3,14.3,16,21.1
		c-4.6-9.7-9.4-19.3-13.9-29C166.8,85.8,165.4,87.4,164.4,89.3 M89.1,91.3c6.9,9.6,14,19,20.9,28.6c0.7,0.8,1.3,2.2,2.6,1.8
		c3.3-6.9,7.2-13.6,9.9-20.8C111.3,98.1,100.3,94.4,89.1,91.3 M126.9,101.1c2.7,7.5,7,14.3,10.2,21.7c7.7-10.4,15.6-20.7,22.9-31.4
		C149,94.5,138.1,98.1,126.9,101.1 M61.4,125.1c8,9.7,16,19.3,24,29c0-20.4,0.2-40.9-0.1-61.3C77.3,103.5,69.3,114.3,61.4,125.1
		 M87.5,153.3c7.6-9.1,15.1-18.2,22.6-27.4c1.1-0.9,0.6-2-0.1-2.9c-7.5-10.1-15-20.3-22.4-30.5C87.3,112.8,87.4,133,87.5,153.3
		 M138.3,124.8c8.1,9.3,15.5,19.2,23.8,28.3c0.1-15.7,0-31.4,0.1-47.1c-0.1-4.4,0.3-8.9-0.5-13.3C154,103.5,145.9,114,138.3,124.8
		 M164.2,92.8c-0.1,20.4-0.1,40.8,0,61.2c7.7-9.3,15.4-18.6,23.1-27.8c1.1-1.2-0.4-2.5-1-3.5C178.9,112.7,171.6,102.7,164.2,92.8
		 M61.6,128.6c-0.1,18.6-0.1,37.3,0,55.9c8-9.1,15.3-18.7,23.2-27.8C77.3,147.2,69.4,137.9,61.6,128.6 M164.6,156.6
		c7.8,9.1,15.2,18.6,23.1,27.7c0.2-18.6,0.2-37.2,0-55.7C180,138,172.2,147.2,164.6,156.6z"/>
</g>
<g id="_x23_30b6f3ff">
	<path class="st0" d="M109.8,63.7c4.8-6.1,9.6-12.2,15.2-17.6c5.1,5.8,10,11.7,14.9,17.6c-5-0.8-9.9-2.2-14.9-2.9
		C119.8,61.3,114.9,62.9,109.8,63.7z"/>
	<path class="st0" d="M82.7,82.2c10.2-8.5,20.2-17.4,30.4-25.9c-8.8,10.6-17.6,21.1-26.6,31.5C85.1,86,83.9,84.1,82.7,82.2z"/>
	<path class="st0" d="M136.9,56.6c9.9,8.6,19.8,17.2,29.9,25.6c-1.3,1.9-2.5,3.8-3.9,5.6C154.2,77.5,145.2,67.4,136.9,56.6z"/>
	<path class="st0" d="M108.3,65.9c5.6-0.7,11-2.6,16.7-3.1c5.4,0.8,10.7,2.3,16.1,3.2c-3.4,8-7.9,15.5-11.6,23.4
		c-1.6,2.9-2.7,6.2-5,8.8C119.2,87.3,113.2,76.9,108.3,65.9z"/>
	<path class="st0" d="M101.3,73.4c1.7-2,3.2-4.2,5.4-5.7c5.2,10.6,10.6,21,15.9,31.5c-11.5-3.2-23-6.9-34.5-10.1
		C92.5,83.8,96.9,78.6,101.3,73.4z"/>
	<path class="st0" d="M141.6,70.7c0.6-0.9,0.8-2.3,2-2.5c5.9,6.9,11.9,13.7,17.5,20.8c-11.5,3.2-22.8,7.1-34.4,10
		C131.8,89.6,136.7,80.2,141.6,70.7z"/>
	<path class="st0" d="M81.3,84.2c1.2,2,4.9,4.3,2.8,6.8c-5.4,7.1-10.3,14.6-16.1,21.4C72.2,102.9,77.1,93.7,81.3,84.2z"/>
	<path class="st0" d="M164.4,89.3c0.9-1.9,2.4-3.4,3.6-5.1c4.5,9.7,9.3,19.3,13.9,29c-5.7-6.7-10.5-14.1-16-21.1
		C165.5,91.1,164.4,90.4,164.4,89.3z"/>
	<path class="st0" d="M89.1,91.3c11.2,3.1,22.2,6.8,33.4,9.7c-2.7,7.2-6.6,13.8-9.9,20.8c-1.3,0.3-1.9-1-2.6-1.8
		C103.2,110.3,96.1,100.9,89.1,91.3z"/>
	<path class="st0" d="M126.9,101.1c11.1-3,22.1-6.5,33.1-9.7c-7.2,10.7-15.2,21-22.9,31.4C134,115.4,129.6,108.6,126.9,101.1z"/>
	<path class="st0" d="M61.4,125.1c7.9-10.8,15.9-21.6,23.9-32.4c0.4,20.4,0.1,40.9,0.1,61.3C77.4,144.4,69.4,134.8,61.4,125.1z"/>
	<path class="st0" d="M87.5,153.3c-0.1-20.3-0.2-40.5,0-60.8c7.5,10.2,14.9,20.4,22.4,30.5c0.7,0.9,1.3,2.1,0.1,2.9
		C102.6,135.1,95.1,144.2,87.5,153.3z"/>
	<path class="st0" d="M138.3,124.8c7.7-10.8,15.7-21.3,23.4-32.1c0.8,4.4,0.4,8.9,0.5,13.3c0,15.7,0.1,31.4-0.1,47.1
		C153.8,144,146.4,134.1,138.3,124.8z"/>
	<path class="st0" d="M164.2,92.8c7.3,10,14.7,19.9,22.1,29.8c0.6,1,2.1,2.4,1,3.5c-7.7,9.3-15.4,18.5-23.1,27.8
		C164.1,133.6,164.1,113.2,164.2,92.8z"/>
	<path class="st0" d="M61.6,128.6c7.8,9.3,15.7,18.6,23.2,28.2c-8,9.1-15.3,18.7-23.2,27.8C61.5,165.9,61.5,147.2,61.6,128.6z"/>
	<path class="st0" d="M164.6,156.6c7.6-9.4,15.4-18.7,23.1-28c0.2,18.6,0.2,37.1,0,55.7C179.8,175.3,172.4,165.8,164.6,156.6z"/>
</g>
</svg>
